X:18
T:Jerry Blossom. G&D_1811.18
T:Cherry Blossom? G&D_1811.18
M:2/4
L:1/8
Q:1/2=100
B:Goulding, D’Almaine & Potter 24 CDs, 1811
O:England
A:London
N:(P).
Z:Village Music Project, 1999, Chris Partington
W:Change sides ,down the middle,Allemande.
K:D
d2fe|d2A2|Bdce|dfaf|d2fe|d2A2|Bdce|d2z2:|
|:e2gf|e2B2|gfed|ceAc|d2fe|d2A2|Bdce|d2D2:|

